icons/cup-smooth-alt.svg

<svg xmlns="http://www.w3.org/2000/svg" viewBox="0 0 24 24" fill="currentColor">
  <path d="M6 5.75c-1.28579 0-2.25.96421-2.25 2.25v.25H8c.49392 0 .92507.23941 1.21783.53217S9.75 9.50608 9.75 10v5c0 .4939-.23941.9251-.53217 1.2178-.29276.2928-.72391.5322-1.21783.5322H5.91066c1.09127.9375 2.51689 1.5 4.08934 1.5 2.6866 0 4.9085-1.6057 5.7987-3.9157.2746-.7332.4513-1.5425.4513-2.3343V8c0-1.28579-.9642-2.25-2.25-2.25H6ZM3.73052 16.5849C5.13379 18.5102 7.40841 19.75 10 19.75c3.04 0 5.6293-1.6788 6.8931-4.1877.3501.1092.7378.1877 1.1069.1877 2.1142 0 3.75-1.6358 3.75-3.75 0-2.13037-1.7521-3.75-3.75-3.75-.0814 0-.1653.00485-.25.01345V8c0-2.11421-1.6358-3.75-3.75-3.75H6C3.88579 4.25 2.25 5.88579 2.25 8v4c0 1.5656.45244 3.0155 1.23512 4.2275.04522.1422.13171.266.2454.3574Zm.91281-1.3349H8c.00608 0 .07493-.0106.15717-.0928.08224-.0823.09283-.1511.09283-.1572v-5c0-.00608-.01059-.07493-.09283-.15717C8.07493 9.76059 8.00608 9.75 8 9.75H3.75V12c0 1.1957.32526 2.3065.89333 3.25ZM17.75 9.77742V12c0 .7432-.1214 1.4769-.3154 2.1584.2003.0562.3995.0916.5654.0916 1.2858 0 2.25-.9642 2.25-2.25 0-1.2696-1.0479-2.25-2.25-2.25-.0673 0-.1535.00995-.25.02742Z"/>
</svg>

<svg width="24" height="24" viewBox="0 0 24 24" fill="none" xmlns="http://www.w3.org/2000/svg">
<path fill-rule="evenodd" clip-rule="evenodd" d="M6 5.75C4.71421 5.75 3.75 6.71421 3.75 8V8.25H8C8.49392 8.25 8.92507 8.48941 9.21783 8.78217C9.51059 9.07493 9.75 9.50608 9.75 10V15C9.75 15.4939 9.51059 15.9251 9.21783 16.2178C8.92507 16.5106 8.49392 16.75 8 16.75H5.91066C7.00193 17.6875 8.42755 18.25 10 18.25C12.6866 18.25 14.9085 16.6443 15.7987 14.3343C16.0733 13.6011 16.25 12.7918 16.25 12V8.65944L16.25 8C16.25 6.71421 15.2858 5.75 14 5.75H6ZM3.73052 16.5849C5.13379 18.5102 7.40841 19.75 10 19.75C13.04 19.75 15.6293 18.0712 16.8931 15.5623C17.2432 15.6715 17.6309 15.75 18 15.75C20.1142 15.75 21.75 14.1142 21.75 12C21.75 9.86963 19.9979 8.25 18 8.25C17.9186 8.25 17.8347 8.25485 17.75 8.26345V8C17.75 5.88579 16.1142 4.25 14 4.25H6C3.88579 4.25 2.25 5.88579 2.25 8V9V12C2.25 13.5656 2.70244 15.0155 3.48512 16.2275C3.53034 16.3697 3.61683 16.4935 3.73052 16.5849ZM4.64333 15.25H8C8.00608 15.25 8.07493 15.2394 8.15717 15.1572C8.23941 15.0749 8.25 15.0061 8.25 15V10C8.25 9.99392 8.23941 9.92507 8.15717 9.84283C8.07493 9.76059 8.00608 9.75 8 9.75H3.75V12C3.75 13.1957 4.07526 14.3065 4.64333 15.25ZM17.75 9.77742V12C17.75 12.7432 17.6286 13.4769 17.4346 14.1584C17.6349 14.2146 17.8341 14.25 18 14.25C19.2858 14.25 20.25 13.2858 20.25 12C20.25 10.7304 19.2021 9.75 18 9.75C17.9327 9.75 17.8465 9.75995 17.75 9.77742Z" fill="black"/>
</svg>
